src/pos-icons/beaker-question-outline.svg

<svg height="24" viewBox="0 0 24 24" width="24" xmlns="http://www.w3.org/2000/svg"><path d="m0 3h18v2c-1.1 0-2 .9-2 2v12c0 1.11-.89 2-2 2h-10c-1.1 0-2-.89-2-2v-12c0-1.1-.89-2-2-2zm4 2v2h5v1h-5v1h3v1h-3v1h3v1h-3v1h5v1h-5v1h3v1h-3v3h10v-14zm17.5 10.5v1.5h-1.5v-1.5zm-2-5h-1.5v-.5c0-1.66 1.34-3 3-3s3 1.34 3 3c0 .97-.5 1.88-1.29 2.41l-.3.19c-.57.4-.91 1.02-.91 1.7v.2h-1.5v-.2c0-1.19.6-2.3 1.59-2.95l.29-.19c.39-.26.62-.69.62-1.16 0-.82-.67-1.5-1.5-1.5s-1.5.67-1.5 1.5z"/></svg>

<?xml version="1.0" encoding="UTF-8"?><!DOCTYPE svg PUBLIC "-//W3C//DTD SVG 1.1//EN" "http://www.w3.org/Graphics/SVG/1.1/DTD/svg11.dtd"><svg xmlns="http://www.w3.org/2000/svg" xmlns:xlink="http://www.w3.org/1999/xlink" version="1.1" id="mdi-beaker-question-outline" width="24" height="24" viewBox="0 0 24 24"><path d="M0 3H18V5C16.9 5 16 5.9 16 7V19C16 20.11 15.11 21 14 21H4C2.9 21 2 20.11 2 19V7C2 5.9 1.11 5 0 5V3M4 5V7H9V8H4V9H7V10H4V11H7V12H4V13H9V14H4V15H7V16H4V19H14V5H4M21.5 15.5V17H20V15.5H21.5M19.5 10.5H18V10C18 8.34 19.34 7 21 7C22.66 7 24 8.34 24 10C24 10.97 23.5 11.88 22.71 12.41L22.41 12.6C21.84 13 21.5 13.62 21.5 14.3V14.5H20V14.3C20 13.11 20.6 12 21.59 11.35L21.88 11.16C22.27 10.9 22.5 10.47 22.5 10C22.5 9.18 21.83 8.5 21 8.5C20.17 8.5 19.5 9.17 19.5 10V10.5Z" /></svg>
